X:20
T:Wohlfahrt 20 Op 45 No 22
C:Franz Wohlfahrt / K.H. Aiquoni
L:1/8
Q:1/4=90
M:4/4
I:linebreak $
K:C
(G,A,B, ||"C" !>!C)(G,A,B, C)(G,A,B, |"C" !>!C)(EGc e)(cGE |"C" !>!C)(G,A,B, C)(G,A,B, | 
"C" !>!C)(EGc e)(cGE |$"Dm" !>!D)(A,B,^C D)(A,B,C |"Dm" !>!D)(FAd f)(dAF | 
"Dm" !>!D)(A,B,^C !>!D)(A,B,C |"Dm" !>!D)(FAd !>!f)(dAF |$"G" !>!D)(G,B,C !>!D)(G,B,C | 
"G7" !>!D)(FBd !>!f)(dBG |"G" !>!D)(G,B,C !>!D)(G,B,C |"G" !>!D)(FBd !>!f)(dBG |$ 
"C" !>!E)(G,A,B, !>!C)(B,CD |"C" !>!E)(Gce !>!a)(g^fg |"G" !>!a)(g^fe !>!d)(cBA | 
"G" !>!G)(DE^F G)(BAG |$"D7" !>!^F)(ed^c !>!d)(edc |"D7" !>!d)(^fag f)(ed=c | 
"G" !>!B)(ed^c !>!d)(edc | !>!d)(bgd !>!=c)(BAG |$"D7" !>!^F)(ed^c !>!d)(edc | 
!>!d)(^fag !>!f)(ed=c |"G" !>!B)(ed^c !>!d)(edc | !>!d)(bgd !>!=c)(BAG |$ 
"D" !>!^F)(GAB !>!c)(^fg!>!a |"G" !>!b)(ag^f !>!g)(dBG |"D" !>!^F)(GAB !>!c)(^fga | 
"G" !>!b)(ag^f !>!g)(dBG |$"G7" !>!=F)(GFE !>!F)(AGF |"C" !>!E)(Gce !>!a)(g^fe | 
"G" !>!d)(Bed"D7" !>!c)(DE^F |"G" !>!G)(^FGA !>!G)(=FED ||$"C" !>!C)(G,A,B, C)(G,A,B, | 
"C" !>!C)(EGc e)(cGE |"C" !>!C)(G,A,B, !>!C)(G,A,B, |"C" !>!C)(EGc e)(cGE |$ 
"Dm" !>!D)(A,B,^C D)(A,B,C |"Dm" !>!D)(FAd !>!f)(dAF |"Dm" !>!D)(A,B,^C !>!D)(A,B,C | 
"Dm" !>!D)(FAd !>!f)(dAF |$"G" !>!D)(G,B,=C !>!D)(G,B,C |"G" !>!D)(FBd !>!f)(dBF | 
"G" !>!D)(G,B,C !>!D)(B,DE |"G" !>!F)(Bdc !>!B)(AGF |$"C" !>!E)(GcB"F" !>!A)(dfa | 
"C" !>!g)(gec"G7" !>!B)(GFD |"C" !>!C)(EGc"F" !>!A)(dfa |"C" !>!g)(gec"G7" !>!B)(GFD |$ 
"C" !>!C)(G,A,B, !>!C)(G,A,B, |"C" !>!C)(EGc !>!e)(cGE |"C" !>!C)(G,A,B, !>!C)(G,A,B, | 
"C" !>!C)(EGc !>!e)(cGE |$"C" !>!C)(G,A,B, !>!C)(EFG |"F" !>!A)(FGA"G" !>!B)(GAB | 
"C" !>!c)(cGE !>!C)"G7"(G,A,B, |"C" C2) z2 z4 |] 



